assets/svgs/channelf.svg

<?xml version="1.0" encoding="UTF-8" standalone="no"?>
<svg
   xmlns:dc="http://purl.org/dc/elements/1.1/"
   xmlns:cc="http://creativecommons.org/ns#"
   xmlns:rdf="http://www.w3.org/1999/02/22-rdf-syntax-ns#"
   xmlns:svg="http://www.w3.org/2000/svg"
   xmlns="http://www.w3.org/2000/svg"
   xmlns:sodipodi="http://sodipodi.sourceforge.net/DTD/sodipodi-0.dtd"
   xmlns:inkscape="http://www.inkscape.org/namespaces/inkscape"
   id="Warstwa_1"
   data-name="Warstwa 1"
   version="1.1"
   sodipodi:docname="channelf.svg"
   width="263.99966"
   height="46.999584"
   inkscape:version="0.92.5 (2060ec1f9f, 2020-04-08)">
  <metadata
     id="metadata23">
    <rdf:RDF>
      <cc:Work
         rdf:about="">
        <dc:format>image/svg+xml</dc:format>
        <dc:type
           rdf:resource="http://purl.org/dc/dcmitype/StillImage" />
      </cc:Work>
    </rdf:RDF>
  </metadata>
  <defs
     id="defs21" />
  <sodipodi:namedview
     pagecolor="#ffffff"
     bordercolor="#666666"
     borderopacity="1"
     objecttolerance="10"
     gridtolerance="10"
     guidetolerance="10"
     inkscape:pageopacity="0"
     inkscape:pageshadow="2"
     inkscape:window-width="640"
     inkscape:window-height="480"
     id="namedview19"
     showgrid="false"
     inkscape:zoom="2.36"
     inkscape:cx="49.999656"
     inkscape:cy="-3.0479403"
     inkscape:window-x="72"
     inkscape:window-y="27"
     inkscape:window-maximized="0"
     inkscape:current-layer="Warstwa_1" />
  <title
     id="title2">Sharp_X1_logo</title>
  <path
     d="m 263.99966,27.364523 c -0.35,2.616 -0.646,5.246 -1.064,7.85 -0.271,1.691 -0.689,3.364 -1.107,5.031 -0.45,2.339 -2.385,4.1 -4.75,4.319 -5.223,0.723 -10.459,1.63 -15.683,2.062 -10.409,0.809 -20.879,0.301 -31.162,-1.512 -0.43,-0.074 -0.861,-0.21 -1.292,-0.247 -3.82,-0.29 -5.857,-2.357 -6.669,-6.116 -2.258,-10.166 -2.218,-20.711 0.117,-30.8589998 0.751,-3.265 2.51,-5.074 5.882,-5.666 9.844,-1.73399998 19.724,-2.67799998 29.685,-2.01199998 6.35,0.426 12.656,1.43099998 18.98,2.20999998 2.522,0.169 4.578,2.092 4.922,4.603 0.702,3.6299998 1.231,7.2889998 1.846,10.9369998 0.092,0.561 0.178,1.123 0.265,1.685 z m -33.34,0.451 h 12.656 v -8.642 h -12.569 v -5.079 h 12.569 V 4.6585232 h -22.026 V 42.405523 h 9.383 z"
     id="path4"
     inkscape:connector-curvature="0"
     style="fill:#ffffff" />
  <path
     d="m 47.607656,41.429523 v -13.195 h -10.367 v 13.103 h -8.866 V 7.0645232 h 8.786 V 20.180523 h 10.403 V 7.0585232 h 8.94 V 37.424523 l 0.271,0.068 c 0.203,-0.407 0.43,-0.802 0.615,-1.235 4.298,-9.368 8.591,-18.746 12.877,-28.1309998 0.242,-0.798 1.021,-1.306 1.846,-1.203 4.442,0.055 8.89,0 13.443,0 V 41.337523 h -8.755 v -13.177 c -2.215,0 -4.27,-0.043 -6.319,0.043 -0.32,0 -0.713,0.568 -0.892,0.957 -1.729,3.702 -3.445,7.406 -5.113,11.183 -0.202,0.724 -0.896,1.197 -1.642,1.118 -5.014,-0.063 -10.029,-0.032 -15.227,-0.032 z m 29.076,-27.248 h -0.24 l -2.726,5.98 h 2.966 z"
     id="path6"
     inkscape:connector-curvature="0"
     style="fill:#ffffff" />
  <path
     d="M 108.94066,24.735523 V 7.0465232 h 8.866 V 41.423523 c -2.818,0 -5.618,0.032 -8.417,-0.037 -0.344,0 -0.763,-0.518 -0.997,-0.882 -3.297,-5.117 -6.564,-10.246 -9.843004,-15.368 -0.253,-0.401 -0.523,-0.784 -0.979,-1.444 v 17.645 h -8.871 V 6.9725232 c 2.805,0 5.604,-0.037 8.404,0.037 0.344,0 0.75,0.525 0.99,0.895 3.282004,5.1139998 6.563004,10.2369998 9.844004,15.3679998 0.246,0.388 0.523,0.784 1.003,1.463 z"
     id="path8"
     inkscape:connector-curvature="0"
     style="fill:#ffffff" />
  <path
     d="m 149.62666,41.429523 c -2.818,0 -5.537,0.038 -8.269,-0.043 -0.388,0 -0.867,-0.506 -1.12,-0.901 -3.328,-5.141 -6.62,-10.307 -9.917,-15.466 -0.228,-0.358 -0.48,-0.691 -0.948,-1.365 v 17.683 h -8.785 V 6.9725232 c 2.774,0 5.574,0 8.373,0.037 0.338,0 0.751,0.525 0.991,0.895 3.281,5.1099998 6.562,10.2309998 9.843,15.3609998 0.259,0.408 0.529,0.797 1.028,1.543 V 7.0345232 h 8.81 z"
     id="path10"
     inkscape:connector-curvature="0"
     style="fill:#ffffff" />
  <path
     d="M 152.73366,41.337523 V 7.0645232 h 19.029 v 7.7339998 h -10.12 v 5.456 h 10.114 v 7.888 h -10.151 v 5.4 h 10.139 v 7.795 z"
     id="path12"
     inkscape:connector-curvature="0"
     style="fill:#ffffff" />
  <path
     d="m 26.165656,20.927523 c -2.461,-4.456 -6.152,-6.339 -10.268,-5.407 -6.6719995,1.528 -9.1929995,9.728 -4.538,14.761 0.953,1.03 2.134,1.819 3.449,2.305 4.239,1.548 7.771,0.061 11.487,-5.006 v 4.135 c 0,2.382 0,4.765 0,7.153 0.108,0.662 -0.281,1.304 -0.917,1.512 -6.768,2.845 -13.16,2.259 -18.8269995,-2.438 -5.66600004,-4.696 -7.776,-11.11 -5.86300004,-18.311 C 2.5716565,12.532523 7.3886565,8.1885232 14.593656,6.6705232 c 3.608,-0.752 7.363,-0.279 10.674,1.345 0.501,0.261 0.858,0.736 0.972,1.29 0.08,3.6229998 0.043,7.2459998 0.037,10.8629998 -0.02,0.254 -0.057,0.508 -0.111,0.759 z"
     id="path14"
     inkscape:connector-curvature="0"
     style="fill:#ffffff" />
  <path
     d="m 183.70466,33.561523 h 10.232 v 7.776 h -19.03 V 7.0215232 h 8.798 z"
     id="path16"
     inkscape:connector-curvature="0"
     style="fill:#ffffff" />
</svg>

<?xml version="1.0" encoding="utf-8"?>
<svg id="Warstwa_1" data-name="Warstwa 1" viewBox="0 0 264 47" xmlns="http://www.w3.org/2000/svg">
  <title>Sharp_X1_logo</title>
  <path d="M 264 27.317 C 263.65 29.933 263.354 32.563 262.936 35.167 C 262.665 36.858 262.247 38.531 261.829 40.198 C 261.379 42.537 259.444 44.298 257.079 44.517 C 251.856 45.24 246.62 46.147 241.396 46.579 C 230.987 47.388 220.517 46.88 210.234 45.067 C 209.804 44.993 209.373 44.857 208.942 44.82 C 205.122 44.53 203.085 42.463 202.273 38.704 C 200.015 28.538 200.055 17.993 202.39 7.845 C 203.141 4.58 204.9 2.771 208.272 2.179 C 218.116 0.445 227.996 -0.499 237.957 0.167 C 244.307 0.593 250.613 1.598 256.937 2.377 C 259.459 2.546 261.515 4.469 261.859 6.98 C 262.561 10.61 263.09 14.269 263.705 17.917 C 263.797 18.478 263.883 19.04 263.97 19.602 Z M 230.66 27.768 L 243.316 27.768 L 243.316 19.126 L 230.747 19.126 L 230.747 14.047 L 243.316 14.047 L 243.316 4.611 L 221.29 4.611 L 221.29 42.358 L 230.673 42.358 Z" fill="white"/>
  <path d="M 47.608 41.382 L 47.608 28.187 L 37.241 28.187 L 37.241 41.29 L 28.375 41.29 L 28.375 7.017 L 37.161 7.017 L 37.161 20.133 L 47.564 20.133 L 47.564 7.011 L 56.504 7.011 L 56.504 37.377 L 56.775 37.445 C 56.978 37.038 57.205 36.643 57.39 36.21 C 61.688 26.842 65.981 17.464 70.267 8.079 C 70.509 7.281 71.288 6.773 72.113 6.876 C 76.555 6.931 81.003 6.876 85.556 6.876 L 85.556 41.29 L 76.801 41.29 L 76.801 28.113 C 74.586 28.113 72.531 28.07 70.482 28.156 C 70.162 28.156 69.769 28.724 69.59 29.113 C 67.861 32.815 66.145 36.519 64.477 40.296 C 64.275 41.02 63.581 41.493 62.835 41.414 C 57.821 41.351 52.806 41.382 47.608 41.382 Z M 76.684 14.134 L 76.444 14.134 L 73.718 20.114 L 76.684 20.114 Z" fill="white"/>
  <path d="M 108.941 24.688 L 108.941 6.999 L 117.807 6.999 L 117.807 41.376 C 114.989 41.376 112.189 41.408 109.39 41.339 C 109.046 41.339 108.627 40.821 108.393 40.457 C 105.096 35.34 101.829 30.211 98.55 25.089 C 98.297 24.688 98.027 24.305 97.571 23.645 L 97.571 41.29 L 88.7 41.29 L 88.7 6.925 C 91.505 6.925 94.304 6.888 97.104 6.962 C 97.448 6.962 97.854 7.487 98.094 7.857 C 101.376 12.971 104.657 18.094 107.938 23.225 C 108.184 23.613 108.461 24.009 108.941 24.688 Z" fill="white"/>
  <path d="M 149.627 41.382 C 146.809 41.382 144.09 41.42 141.358 41.339 C 140.97 41.339 140.491 40.833 140.238 40.438 C 136.91 35.297 133.618 30.131 130.321 24.972 C 130.093 24.614 129.841 24.281 129.373 23.607 L 129.373 41.29 L 120.588 41.29 L 120.588 6.925 C 123.362 6.925 126.162 6.925 128.961 6.962 C 129.299 6.962 129.712 7.487 129.952 7.857 C 133.233 12.967 136.514 18.088 139.795 23.218 C 140.054 23.626 140.324 24.015 140.823 24.761 L 140.823 6.987 L 149.633 6.987 Z" fill="white"/>
  <path d="M 152.734 41.29 L 152.734 7.017 L 171.763 7.017 L 171.763 14.751 L 161.643 14.751 L 161.643 20.207 L 171.757 20.207 L 171.757 28.095 L 161.606 28.095 L 161.606 33.495 L 171.745 33.495 L 171.745 41.29 Z" fill="white"/>
  <path d="M 26.166 20.88 C 23.705 16.424 20.014 14.541 15.898 15.473 C 9.226 17.001 6.705 25.201 11.36 30.234 C 12.313 31.264 13.494 32.053 14.809 32.539 C 19.048 34.087 22.58 32.6 26.296 27.533 L 26.296 31.668 C 26.296 34.05 26.296 36.433 26.296 38.821 C 26.404 39.483 26.015 40.125 25.379 40.333 C 18.611 43.178 12.219 42.592 6.552 37.895 C 0.886 33.199 -1.224 26.785 0.689 19.584 C 2.572 12.485 7.389 8.141 14.594 6.623 C 18.202 5.871 21.957 6.344 25.268 7.968 C 25.769 8.229 26.126 8.704 26.24 9.258 C 26.32 12.881 26.283 16.504 26.277 20.121 C 26.257 20.375 26.22 20.629 26.166 20.88 Z" fill="white"/>
  <path d="M 183.705 33.514 L 193.937 33.514 L 193.937 41.29 L 174.907 41.29 L 174.907 6.974 L 183.705 6.974 Z" fill="white"/>
</svg>
